X: 17
T: Missa O venus bant &mdash; Credo
C: Gaspar van Weerbeke
%%abc-version 2.0
%%abcx-abcm2ps-target-version 5.9.1 (29 Sep 2008)
%%abc-creator hum2abc beta
%%abcx-conversion-date 2022/03/06 13:05:55
%%abc-copyright Copyright 2014, Pavanello, Agnese
%%abc-edited-by Mair-Gruber, Roland
%%humdrum-veritas 880547815
%%humdrum-veritas-data 2771542795
%%linebreak <none>
%%barnumbers 0
L: 1/4
M: 3/2
N: Derived from Gas0102c-Missa_O_venus_bant-Credo.krn
%%staves [1 2 3 4]
V: 1 clef=treble
V: 2 clef=treble-8
V: 3 clef=treble-8
V: 4 clef=bass
K: C
[V:1] G4F2 | 
[V:2] G4A2 | 
[V:3] z6 | 
[V:4] z6 | 
[V:1] ED2G2^F | 
[V:2] G>ABcA2 | 
[V:3] z6 | 
[V:4] z6 | 
[V:1] G2zGAA | 
[V:2] G>ABBc3/B/ | 
[V:3] z6 | 
[V:4] z6 | 
[V:1] BBc3/B//A//G2 | 
[V:2] G2zABc- | 
[V:3] z6 | 
[V:4] z6 | 
[V:1] AFEEDd- | 
[V:2] cd2cBG- | 
[V:3] z6 | 
[V:4] z6 | 
[V:1] dBA2G2 | 
[V:2] Gg2fec- | 
[V:3] z6 | 
[V:4] z6 | 
[V:1] Ac2BAA | 
[V:2] ced2cd- | 
[V:3] z6 | 
[V:4] z6 | 
[V:1] FGAFEA- | 
[V:2] d/ c/BAdcf- | 
[V:3] z6 | 
[V:4] z6 | 
[V:1] A/G/GFB>Ac- | 
[V:2] fedg>fe | 
[V:3] z6 | 
[V:4] z6 | 
[V:1] cA2G2F | 
[V:2] cd2c/ B/A2 | 
[V:3] z6 | 
[V:4] z6 | 
[V:1] G>EFED2 | 
[V:2] G2Ac2B | 
[V:3] z6 | 
[V:4] z6 | 
[V:1] E2z2G2- | 
[V:2] c2c2B3/c/ | 
[V:3] G6- | 
[V:4] C,4G,,3/A,,/ | 
[V:1] G2EF2E | 
[V:2] decA>Bc- | 
[V:3] G2A4 | 
[V:4] B,,C,2D,2C,- | 
[V:1] G2AcBA/G/ | 
[V:2] cGC2D2 | 
[V:3] GG2FG2 | 
[V:4] C,B,,A,,2G,,2 | 
[V:1] FA>G^F/E/F2 | 
[V:2] z2d4 | 
[V:3] A6 | 
[V:4] D,F,>E,D,/C,/D,2 | 
[V:1] G2z2zG | 
[V:2] zgggee | 
[V:3] G6- | 
[V:4] E,2>C,2C,2 | 
[V:1] GGEEDD | 
[V:2] ddc2g2 | 
[V:3] G6 | 
[V:4] G,,2C,2zG,, | 
[V:1] C2z2G2- | 
[V:2] g2ecG2 | 
[V:3] z2c4- | 
[V:4] C,2C,>D,E,2 | 
[V:1] GGA2G2 | 
[V:2] zcA>Bc3/d/ | 
[V:3] c4c2 | 
[V:4] C,2F,2E,C, | 
[V:1] c2c>BAG | 
[V:2] e2f2z2 | 
[V:3] c6 | 
[V:4] C,2F,2zE, | 
[V:1] c3A>GF | 
[V:2] f>ec2F2 | 
[V:3] A6 | 
[V:4] F,>G,A,F,>E,D, | 
[V:1] E>FGA2F | 
[V:2] G2zA2c | 
[V:3] c6 | 
[V:4] C,>D,E,F,>G,A, | 
[V:1] GABGc2 | 
[V:2] dfdgef | 
[V:3] z6 | 
[V:4] G,F,G,2A,2 | 
[V:1] B2BBB2 | 
[V:2] g2>g2g2 | 
[V:3] z2G3G | 
[V:4] G,3E,2G, | 
[V:1] AA>GF/E/DG- | 
[V:2] f2f2gd- | 
[V:3] d4B2 | 
[V:4] D,2D,2G,3/A,/ | 
[V:1] G/A/ B/A//B// c/B/A/G<^FE/ | 
[V:2] d/c/BAd3 | 
[V:3] G2A4 | 
[V:4] B,G,F,>E,D,2 | 
[V:1] G2D2zF | 
[V:2] d2BGDF | 
[V:3] G4d2 | 
[V:4] G,,4B,,2 | 
[V:1] GABG/cB/B/A/ | 
[V:2] EFGCG2 | 
[V:3] ecBcd2 | 
[V:4] C,A,,G,,A,,G,,2 | 
[V:1] c2z2z2 | 
[V:2] G2ccGG | 
[V:3] c4z2 | 
[V:4] C,2zC,C,C, | 
[V:1] z6 | 
[V:2] d>cBA/AG/G- | 
[V:3] z6 | 
[V:4] G,,2D,2C,B,, | 
[V:1] z6 | 
[V:2] G/E/FG/A/B/c/de | 
[V:3] z6 | 
[V:4] A,,2G,,>A,,B,,C, | 
[V:1] z6 | 
[V:2] d/d/>c/B//A//Gc2B | 
[V:3] z6 | 
[V:4] D,/E,/F,G,E,D,2 | 
[V:1] G3A>Bc- | 
[V:2] c/d/e/f/gf>ec | 
[V:3] c4A2 | 
[V:4] C,>D,E,F,>G,A,/B,/ | 
[V:1] c/B/AGcd3/c/ | 
[V:2] z2e2d/c/ B/A/ | 
[V:3] c4Gd- | 
[V:4] CF,E,C,B,,G,, | 
[V:1] B/ A/cBA2^G | 
[V:2] Gfge/f/de | 
[V:3] dcdAB2 | 
[V:4] G,A,G,A,/F,/G,E, | 
[V:1] A2zAAc | 
[V:2] cdefcA | 
[V:3] A2c>BAA | 
[V:4] F,D,C,F,>G,A,/F,/ | 
[V:1] BA>GG>AB/c/ | 
[V:2] GA2zFE | 
[V:3] d2cBA2 | 
[V:4] G,D,F,G,D,C, | 
[V:1] dc/ A/>G/F//E//G2^F | 
[V:2] DEedcA | 
[V:3] Gc>BGA2 | 
[V:4] B,,A,,2B,,C,D, | 
[V:1] G6- | 
[V:2] B6 | 
[V:3] G6- | 
[V:4] G,,6- | 
[V:1] G6 ||  
[V:2] d6 ||  
[V:3] G6 ||  
[V:4] G,,6 ||  
[V:1] [M:2/2]z4 | 
[V:2] [M:2/2]G4 | 
[V:3] [M:2/2]z4 | 
[V:4] [M:2/2]G,,4 | 
[V:1] z4 | 
[V:2] G2G2 | 
[V:3] z4 | 
[V:4] C,2E,2 | 
[V:1] z4 | 
[V:2] A2B2 | 
[V:3] z4 | 
[V:4] D,2D,2 | 
[V:1] G4 | 
[V:2] c3B | 
[V:3] z4 | 
[V:4] C,3D, | 
[V:1] G2G2 | 
[V:2] G2E2 | 
[V:3] z4 | 
[V:4] E,F,G,2 | 
[V:1] A2B2 | 
[V:2] F2G2 | 
[V:3] z4 | 
[V:4] D,2B,,2 | 
[V:1] c3B | 
[V:2] A3B | 
[V:3] z4 | 
[V:4] A,,2C,2- | 
[V:1] G2E2 | 
[V:2] c4 | 
[V:3] z4 | 
[V:4] C,2E,2 | 
[V:1] F2G2 | 
[V:2] d2B2 | 
[V:3] z4 | 
[V:4] D,2zG, | 
[V:1] A3B | 
[V:2] A>Bcd | 
[V:3] z4 | 
[V:4] F,>G,A,D, | 
[V:1] c2BA- | 
[V:2] cAGF | 
[V:3] z4 | 
[V:4] A,F,G,D, | 
[V:1] AG2^F | 
[V:2] G2A2 | 
[V:3] z4 | 
[V:4] E,2D,2 | 
[V:1] G2z2 | 
[V:2] G3A | 
[V:3] z4 | 
[V:4] G,,4- | 
[V:1] G2G2 | 
[V:2] B2B2 | 
[V:3] z4 | 
[V:4] G,,4 | 
[V:1] E2E2 | 
[V:2] c4 | 
[V:3] z4 | 
[V:4] z4 | 
[V:1] D2D2 | 
[V:2] z4 | 
[V:3] z4 | 
[V:4] G,2G,2 | 
[V:1] C2E2 | 
[V:2] G>ABc- | 
[V:3] z4 | 
[V:4] E,2E,2 | 
[V:1] F2F2 | 
[V:2] cB/A/B2 | 
[V:3] z4 | 
[V:4] D,2D,2 | 
[V:1] EG2F/E/ | 
[V:2] c2e2 | 
[V:3] z4 | 
[V:4] C,E,2D,/C,/ | 
[V:1] D2D2 | 
[V:2] f2f2 | 
[V:3] z4 | 
[V:4] B,,2B,,2 | 
[V:1] C2G3/A/ | 
[V:2] eg2f/e/ | 
[V:3] z4 | 
[V:4] C,>D,E,F, | 
[V:1] Bc2B | 
[V:2] dcd2 | 
[V:3] z4 | 
[V:4] G,A,G,2 | 
[V:1] c4 | 
[V:2] c3A | 
[V:3] z4 | 
[V:4] C,4 | 
[V:1] z4 | 
[V:2] B2B2 | 
[V:3] z4 | 
[V:4] G,3G, | 
[V:1] G3G | 
[V:2] c4 | 
[V:3] z4 | 
[V:4] E,2C,2 | 
[V:1] E2C2 | 
[V:2] g3g | 
[V:3] z4 | 
[V:4] C,2C,2 | 
[V:1] G2G/F/E/D/ | 
[V:2] e2c2 | 
[V:3] z4 | 
[V:4] C,2C,2 | 
[V:1] C2G2- | 
[V:2] g2e2- | 
[V:3] z4 | 
[V:4] C,2C,2 | 
[V:1] GEF/E/D/C/ | 
[V:2] ed/c/ d/c/B/A/ | 
[V:3] z4 | 
[V:4] z4 | 
[V:1] B,>CDB, | 
[V:2] G>A B/c/d | 
[V:3] z4 | 
[V:4] z2G,2 | 
[V:1] CD2C- | 
[V:2] AB2A- | 
[V:3] z4 | 
[V:4] F,D,G,A, | 
[V:1] CB,A,2 | 
[V:2] AG2^F | 
[V:3] z4 | 
[V:4] F,G,D,2 | 
[V:1] G,2DE | 
[V:2] G2z2 | 
[V:3] z4 | 
[V:4] zG,2G, | 
[V:1] DG2^F | 
[V:2] z4 | 
[V:3] z4 | 
[V:4] F,G,A,2 | 
[V:1] G2z2 | 
[V:2] dedg- | 
[V:3] z4 | 
[V:4] G,2B,2 | 
[V:1] c2B2 | 
[V:2] g^fg2 | 
[V:3] z4 | 
[V:4] A,2G,2 | 
[V:1] A2G2 | 
[V:2] c2B2 | 
[V:3] z4 | 
[V:4] A,F,G,2 | 
[V:1] F2GA- | 
[V:2] A2GF | 
[V:3] z4 | 
[V:4] D,2E,D, | 
[V:1] AG2^F | 
[V:2] G2A2 | 
[V:3] z4 | 
[V:4] E,2D,2 | 
[V:1] G2zA | 
[V:2] GG2^F | 
[V:3] z4 | 
[V:4] G,,B,,A,,2 | 
[V:1] B2c2 | 
[V:2] G2zA | 
[V:3] z4 | 
[V:4] G,,B,,A,,2 | 
[V:1] d>c A/B/c/d/ | 
[V:2] B2c2 | 
[V:3] z4 | 
[V:4] G,,G,A,2 | 
[V:1] BA/G/FA | 
[V:2] d>c A/B/c/d/ | 
[V:3] z4 | 
[V:4] G,2zF, | 
[V:1] GBcA- | 
[V:2] BGFc- | 
[V:3] z4 | 
[V:4] G,2A,F,- | 
[V:1] AG2^F | 
[V:2] cBA2 | 
[V:3] z4 | 
[V:4] F,G,D,2 | 
[V:1] G2zG- | 
[V:2] G2AG- | 
[V:3] z4 | 
[V:4] G,,C,>D,E,- | 
[V:1] GF/E/F2 | 
[V:2] Gc2B | 
[V:3] z4 | 
[V:4] E,D,/C,/D,2 | 
[V:1] E4 | 
[V:2] c2zg- | 
[V:3] z4 | 
[V:4] C,4 | 
[V:1] z4 | 
[V:2] gf/e/f2 | 
[V:3] z4 | 
[V:4] z2B,,2 | 
[V:1] G2AG- | 
[V:2] e2fg | 
[V:3] z4 | 
[V:4] C,2F,E, | 
[V:1] Gc2B | 
[V:2] ecd2 | 
[V:3] z4 | 
[V:4] C,2G,2 | 
[V:1] c4 | 
[V:2] c2zc | 
[V:3] z4 | 
[V:4] C,2F,A, | 
[V:1] z2zG | 
[V:2] d2e2 | 
[V:3] z4 | 
[V:4] G,2G,2 | 
[V:1] A2B2 | 
[V:2] f2zd | 
[V:3] z4 | 
[V:4] F,2G,B, | 
[V:1] c2zA | 
[V:2] e2f2 | 
[V:3] z4 | 
[V:4] A,2A,2 | 
[V:1] B2c2 | 
[V:2] g2e2 | 
[V:3] z4 | 
[V:4] G,2C,2 | 
[V:1] d2B2 | 
[V:2] d2g2 | 
[V:3] z4 | 
[V:4] B,,G,,>A,,B,,/C,/ | 
[V:1] A2G2 | 
[V:2] fde2 | 
[V:3] z4 | 
[V:4] D,F,E,C, | 
[V:1] FDE2 | 
[V:2] dd2c- | 
[V:3] z4 | 
[V:4] D,B,,A,,C, | 
[V:1] D2CD- | 
[V:2] cBAB- | 
[V:3] z4 | 
[V:4] G,,2C,B,, | 
[V:1] DC/B,/A,2 | 
[V:2] BA/G/^F2 | 
[V:3] z4 | 
[V:4] G,,2D,2 | 
[V:1] G,4 ||  
[V:2] G4 ||  
[V:3] z4 ||  
[V:4] G,,4 ||  
[V:1] [M:2/2]G4 | 
[V:2] [M:2/2]z4 | 
[V:3] [M:2/2]z4 | 
[V:4] [M:2/2]z4 | 
[V:1] A2A2 | 
[V:2] z4 | 
[V:3] z4 | 
[V:4] z4 | 
[V:1] G2G2 | 
[V:2] z4 | 
[V:3] z2G2 | 
[V:4] z4 | 
[V:1] F2F2 | 
[V:2] z4 | 
[V:3] A2A2 | 
[V:4] z4 | 
[V:1] G2B2 | 
[V:2] z4 | 
[V:3] G2G2 | 
[V:4] z2G,,2 | 
[V:1] c2A2 | 
[V:2] z4 | 
[V:3] F2F2 | 
[V:4] A,,2A,,2 | 
[V:1] B3A | 
[V:2] z2G2 | 
[V:3] G4 | 
[V:4] G,,4 | 
[V:1] F>GA2 | 
[V:2] A2A2 | 
[V:3] z4 | 
[V:4] D,>E,F,2 | 
[V:1] DG>AB | 
[V:2] G4 | 
[V:3] z2G2 | 
[V:4] G,B,2A,/G,/ | 
[V:1] c/B/A/G<^FE/ | 
[V:2] z2d2 | 
[V:3] A2A2 | 
[V:4] F,>E,D,2 | 
[V:1] G4 | 
[V:2] B2G2 | 
[V:3] G4 | 
[V:4] G,,2C,2- | 
[V:1] z2G2 | 
[V:2] c3c | 
[V:3] G2G2 | 
[V:4] C,C,C,2 | 
[V:1] c3c | 
[V:2] c2z2 | 
[V:3] z2G2 | 
[V:4] C,2C,2- | 
[V:1] c2c2 | 
[V:2] A3A | 
[V:3] c3c | 
[V:4] C,2F,2- | 
[V:1] c2c2 | 
[V:2] A2F2 | 
[V:3] c4 | 
[V:4] F,F,F,2 | 
[V:1] BA2G/F/ | 
[V:2] A3B | 
[V:3] c4 | 
[V:4] F,2F,2 | 
[V:1] E2CF- | 
[V:2] cded- | 
[V:3] z4 | 
[V:4] C,3_B,,- | 
[V:1] FED2 | 
[V:2] dc2B | 
[V:3] z4 | 
[V:4] B,,C,G,2 | 
[V:1] C2zG- | 
[V:2] c>BG2 | 
[V:3] c4- | 
[V:4] C,4- | 
[V:1] GEFG | 
[V:2] z4 | 
[V:3] c4- | 
[V:4] C,4 | 
[V:1] E2CG | 
[V:2] zg2e | 
[V:3] c4- | 
[V:4] C,3C, | 
[V:1] AGc2- | 
[V:2] fge2 | 
[V:3] c4 | 
[V:4] F,E,C,2 | 
[V:1] cBA3/G/ | 
[V:2] c2f2 | 
[V:3] A4 | 
[V:4] F,2z2 | 
[V:1] GECE- | 
[V:2] ece2 | 
[V:3] c3B | 
[V:4] C,2A,,C,- | 
[V:1] EDB,D- | 
[V:2] cd2B- | 
[V:3] G4 | 
[V:4] C,B,,>G,,B,,- | 
[V:1] DC/B,/A,2 | 
[V:2] BA/G/^F2 | 
[V:3] z4 | 
[V:4] B,,C,D,2 | 
[V:1] G,GF_B | 
[V:2] G2z2 | 
[V:3] d4- | 
[V:4] G,,2D,3/E,/ | 
[V:1] AGA2 | 
[V:2] z4 | 
[V:3] d2c2 | 
[V:4] F,G,2F, | 
[V:1] G2z2 | 
[V:2] d3g- | 
[V:3] B2G2 | 
[V:4] G,G,,>A,,B,, | 
[V:1] c2A2 | 
[V:2] g^f/e/^f2 | 
[V:3] A4 | 
[V:4] C,2D,2 | 
[V:1] Bd2c/B/ | 
[V:2] g2z2 | 
[V:3] G4 | 
[V:4] G,,4 | 
[V:1] A2A2 | 
[V:2] f2d2 | 
[V:3] z4 | 
[V:4] z4 | 
[V:1] G>ABc- | 
[V:2] eg2f/e/ | 
[V:3] z4 | 
[V:4] z4 | 
[V:1] cB/A/B2 | 
[V:2] d2d2 | 
[V:3] z4 | 
[V:4] z4 | 
[V:1] cG2A- | 
[V:2] c>def- | 
[V:3] z4 | 
[V:4] z4 | 
[V:1] A/G/F/E/DG- | 
[V:2] fd>cB/A/ | 
[V:3] z4 | 
[V:4] z4 | 
[V:1] GE2A- | 
[V:2] Gc2A- | 
[V:3] z4 | 
[V:4] z4 | 
[V:1] AF2G- | 
[V:2] Ad2e- | 
[V:3] z4 | 
[V:4] z4 | 
[V:1] GED2 | 
[V:2] ec2B | 
[V:3] z4 | 
[V:4] C,2G,2 | 
[V:1] C4 | 
[V:2] c2z2 | 
[V:3] z4 | 
[V:4] A,F,>G,A, | 
[V:1] B,2G,2 | 
[V:2] z4 | 
[V:3] z4 | 
[V:4] D,G,>A,B, | 
[V:1] A,4 | 
[V:2] c4 | 
[V:3] z4 | 
[V:4] C/B,/A,/G,<F,E,/ | 
[V:1] G,G>AB | 
[V:2] B2G2 | 
[V:3] z4 | 
[V:4] G,2G,2 | 
[V:1] c/B/A/G/F2 | 
[V:2] A4 | 
[V:3] z4 | 
[V:4] z2C,2 | 
[V:1] G2z2 | 
[V:2] Gd2B- | 
[V:3] z4 | 
[V:4] B,,2G,,2 | 
[V:1] z4 | 
[V:2] BA/G/F2 | 
[V:3] z4 | 
[V:4] A,,4 | 
[V:1] Gd>cB- | 
[V:2] G4 | 
[V:3] z2G2 | 
[V:4] G,,4 | 
[V:1] BA/G/F2 | 
[V:2] B2A2 | 
[V:3] d2d2 | 
[V:4] G,2D,F, | 
[V:1] G2z2 | 
[V:2] G2z2 | 
[V:3] e2e2 | 
[V:4] E,C,>D,E, | 
[V:1] z4 | 
[V:2] z4 | 
[V:3] d2d2 | 
[V:4] F,/E,/D,/C,<B,,A,,/ | 
[V:1] E3F | 
[V:2] z4 | 
[V:3] c4- | 
[V:4] C,3D, | 
[V:1] GA2G/F/ | 
[V:2] z4 | 
[V:3] c4 | 
[V:4] E,F,2E,/D,/ | 
[V:1] E2CF- | 
[V:2] G2A2 | 
[V:3] c2c2 | 
[V:4] C,2z2 | 
[V:1] F/E/CD2 | 
[V:2] FAG2 | 
[V:3] A2B2 | 
[V:4] z4 | 
[V:1] C2z2 | 
[V:2] z2G2 | 
[V:3] c4 | 
[V:4] C,2C,2- | 
[V:1] z4 | 
[V:2] G3F/E/ | 
[V:3] z4 | 
[V:4] C,B,,G,,2 | 
[V:1] z4 | 
[V:2] D2F2 | 
[V:3] z4 | 
[V:4] B,,2A,,2 | 
[V:1] z4 | 
[V:2] E2D2 | 
[V:3] z4 | 
[V:4] G,,C,2B,, | 
[V:1] z4 | 
[V:2] Ccde- | 
[V:3] z4 | 
[V:4] C,E,F,G,- | 
[V:1] z4 | 
[V:2] e/d/c2B | 
[V:3] z4 | 
[V:4] G,E,D,2 | 
[V:1] c4 | 
[V:2] c4 | 
[V:3] G4 | 
[V:4] C,4 | 
[V:1] c2c2 | 
[V:2] e2e2 | 
[V:3] G2G2 | 
[V:4] C,2C,2 | 
[V:1] B2BB | 
[V:2] d2dd | 
[V:3] G2G2 | 
[V:4] G,,3G,, | 
[V:1] B2B2 | 
[V:2] BGG2 | 
[V:3] d2d2 | 
[V:4] G,,2G,,2 | 
[V:1] A3A | 
[V:2] A4 | 
[V:3] d2d2 | 
[V:4] D,>E,F,2 | 
[V:1] B2A2 | 
[V:2] z2A2 | 
[V:3] d2d2 | 
[V:4] G,2D,2 | 
[V:1] Gd2d | 
[V:2] B2A2 | 
[V:3] d3d | 
[V:4] G,2F,D, | 
[V:1] BA/G/F2- | 
[V:2] Gd3 | 
[V:3] d4 | 
[V:4] G,2D,2 | 
[V:1] FGA2- | 
[V:2] BA/G<FG/ | 
[V:3] d4 | 
[V:4] G,,2D,2 | 
[V:1] ABcB/A/ | 
[V:2] A4 | 
[V:3] c4 | 
[V:4] A,,4 | 
[V:1] G2AB- | 
[V:2] E4 | 
[V:3] B4- | 
[V:4] E,4- | 
[V:1] BA2^G | 
[V:2] z2e2 | 
[V:3] B4 | 
[V:4] E,2E,2 | 
[V:1] A4 | 
[V:2] c2d2- | 
[V:3] A4 | 
[V:4] F,3E, | 
[V:1] z4 | 
[V:2] dcAB- | 
[V:3] z4 | 
[V:4] D,2C,D,- | 
[V:1] z4 | 
[V:2] BA/G/^F2 | 
[V:3] z4 | 
[V:4] D,C,/B,,/A,,2 | 
[V:1] B3B- | 
[V:2] G4 | 
[V:3] z4 | 
[V:4] G,,4 | 
[V:1] BGG2 | 
[V:2] B3B- | 
[V:3] z4 | 
[V:4] z4 | 
[V:1] d3c | 
[V:2] BGG2 | 
[V:3] z4 | 
[V:4] z4 | 
[V:1] B2A2 | 
[V:2] d3c | 
[V:3] z4 | 
[V:4] z4 | 
[V:1] G2F2 | 
[V:2] B2A2 | 
[V:3] z4 | 
[V:4] z4 | 
[V:1] GBAd- | 
[V:2] G2F2 | 
[V:3] z4 | 
[V:4] z4 | 
[V:1] dGAF | 
[V:2] GBAd- | 
[V:3] z4 | 
[V:4] z4 | 
[V:1] E2FG- | 
[V:2] dGAB- | 
[V:3] z4 | 
[V:4] z4 | 
[V:1] GA>E^F | 
[V:2] BcA2 | 
[V:3] z4 | 
[V:4] z4 | 
[V:1] G3A | 
[V:2] G2z2 | 
[V:3] z4 | 
[V:4] G,3F, | 
[V:1] B2c2 | 
[V:2] z4 | 
[V:3] z4 | 
[V:4] G,2A,2 | 
[V:1] A2G2 | 
[V:2] z2G2- | 
[V:3] z4 | 
[V:4] F,2zG,- | 
[V:1] z2d2 | 
[V:2] GAB2 | 
[V:3] z4 | 
[V:4] G,F,G,2 | 
[V:1] cA>Bc/A/ | 
[V:2] c2A2 | 
[V:3] z4 | 
[V:4] A,2F,2 | 
[V:1] BA/G/F2 | 
[V:2] G2z2 | 
[V:3] z4 | 
[V:4] G,B,A,2 | 
[V:1] G>FDC | 
[V:2] z4 | 
[V:3] z4 | 
[V:4] G,G,,2A,, | 
[V:1] F2E2 | 
[V:2] d2cA- | 
[V:3] z4 | 
[V:4] B,,2C,2 | 
[V:1] zCDB, | 
[V:2] A/B/c/A/BA/G/ | 
[V:3] z4 | 
[V:4] A,,2G,,2 | 
[V:1] A,2G,2 | 
[V:2] F2G2 | 
[V:3] z4 | 
[V:4] zD,E,G,- | 
[V:1] zGAB- | 
[V:2] B2cd- | 
[V:3] z4 | 
[V:4] G,G,F,D, | 
[V:1] BA2G | 
[V:2] d/c/A_B2 | 
[V:3] z4 | 
[V:4] G,F,G,2 | 
[V:1] A2c2 | 
[V:2] A2z2 | 
[V:3] A4 | 
[V:4] D,F,2E,/D,/ | 
[V:1] c2A2 | 
[V:2] z4 | 
[V:3] c2c2 | 
[V:4] C,2F,2 | 
[V:1] A2d2- | 
[V:2] d3e | 
[V:3] A2A2 | 
[V:4] F,2D,2 | 
[V:1] dcBA | 
[V:2] f2d2 | 
[V:3] d3c | 
[V:4] D,2G,2- | 
[V:1] G3B- | 
[V:2] zdeB/c/ | 
[V:3] BAG2 | 
[V:4] G,2E,2 | 
[V:1] BA/G/F2 | 
[V:2] d>cAd- | 
[V:3] A4 | 
[V:4] D,4 | 
[V:1] zG>AB/c/ | 
[V:2] d/c/B/A/B2 | 
[V:3] G4 | 
[V:4] G,,4 | 
[V:1] d>c B/A/B- | 
[V:2] G>A B/c/d- | 
[V:3] z4 | 
[V:4] z2G,3/F,/ | 
[V:1] Bc>BA | 
[V:2] decd | 
[V:3] z4 | 
[V:4] D,C,F,2 | 
[V:1] BG2^F | 
[V:2] BcA2 | 
[V:3] z4 | 
[V:4] G,C,D,2 | 
[V:1] G4 |]  
[V:2] G4 |]  
[V:3] G4 |]  
[V:4] G,,4 |]  


